assets/icons/keyboard-filled.svg

<?xml version="1.0" encoding="UTF-8" standalone="no"?>
<svg
   viewBox="0 0 24 24"
   height="24"
   width="24"
   version="1.1"
   id="svg8"
   sodipodi:docname="keyboard-filled.svg"
   inkscape:version="1.2 (1:1.2.1+202207142221+cd75a1ee6d)"
   xmlns:inkscape="http://www.inkscape.org/namespaces/inkscape"
   xmlns:sodipodi="http://sodipodi.sourceforge.net/DTD/sodipodi-0.dtd"
   xmlns="http://www.w3.org/2000/svg"
   xmlns:svg="http://www.w3.org/2000/svg">
  <defs
     id="defs12" />
  <sodipodi:namedview
     id="namedview10"
     pagecolor="#ffffff"
     bordercolor="#666666"
     borderopacity="1.0"
     inkscape:pageshadow="2"
     inkscape:pageopacity="0.0"
     inkscape:pagecheckerboard="0"
     showgrid="true"
     inkscape:snap-page="true"
     inkscape:zoom="28"
     inkscape:cx="11.535714"
     inkscape:cy="9.3571429"
     inkscape:window-width="1920"
     inkscape:window-height="1043"
     inkscape:window-x="0"
     inkscape:window-y="0"
     inkscape:window-maximized="1"
     inkscape:current-layer="svg8"
     inkscape:showpageshadow="2"
     inkscape:deskcolor="#d1d1d1">
    <inkscape:grid
       type="xygrid"
       id="grid823" />
    <inkscape:grid
       type="xygrid"
       id="grid825"
       dotted="true"
       spacingx="0.5"
       spacingy="0.5"
       empspacing="10" />
  </sodipodi:namedview>
  <path
     id="path860"
     style="color:#000000;fill:#808080;-inkscape-stroke:none"
     d="M 5.4550781 5 C 4.4864982 5.00898 3.7372585 5.0732694 3.1171875 5.4453125 C 2.7038068 5.693341 2.3972495 6.1012205 2.2285156 6.6074219 C 2.0597819 7.1136233 2 7.7222238 2 8.5 L 2 15.5 C 2 16.277776 2.0597822 16.886377 2.2285156 17.392578 C 2.3972495 17.89878 2.7038068 18.306659 3.1171875 18.554688 C 3.9439489 19.050745 5.000003 19 6.5 19 L 16.5 19 C 17.999997 19 19.056051 19.050739 19.882812 18.554688 C 20.296194 18.306659 20.602751 17.89878 20.771484 17.392578 C 20.940218 16.886377 21 16.277776 21 15.5 L 21 8.5 C 21 7.7222238 20.94022 7.1136233 20.771484 6.6074219 C 20.602751 6.1012205 20.296194 5.693341 19.882812 5.4453125 C 19.056052 4.9492557 17.999997 5 16.5 5 L 6.5 5 C 6.1250008 5 5.7779381 4.99701 5.4550781 5 z M 6 10 L 7 10 L 7 11 L 6 11 L 6 10 z M 8 10 L 9 10 L 9 11 L 8 11 L 8 10 z M 10 10 L 11 10 L 11 11 L 10 11 L 10 10 z M 12 10 L 13 10 L 13 11 L 12 11 L 12 10 z M 14 10 L 15 10 L 15 11 L 14 11 L 14 10 z M 16 10 L 17 10 L 17 11 L 16 11 L 16 10 z M 7 12 L 8 12 L 8 13 L 7 13 L 7 12 z M 9 12 L 10 12 L 10 13 L 9 13 L 9 12 z M 11 12 L 12 12 L 12 13 L 11 13 L 11 12 z M 13 12 L 14 12 L 14 13 L 13 13 L 13 12 z M 15 12 L 16 12 L 16 13 L 15 13 L 15 12 z M 6 14 L 7 14 L 7 15 L 6 15 L 6 14 z M 8 14 L 15 14 L 15 15 L 8 15 L 8 14 z M 16 14 L 17 14 L 17 15 L 16 15 L 16 14 z " />
</svg>

<svg height="24" width="24" xmlns="http://www.w3.org/2000/svg"><path style="color:#000;fill:gray;-inkscape-stroke:none" d="M5.455 5c-.969.009-1.718.073-2.338.445-.413.248-.72.656-.888 1.162C2.059 7.114 2 7.722 2 8.5v7c0 .778.06 1.386.229 1.893.168.506.475.914.888 1.162C3.944 19.05 5 19 6.5 19h10c1.5 0 2.556.05 3.383-.445.413-.248.72-.656.888-1.162.17-.507.229-1.115.229-1.893v-7c0-.778-.06-1.386-.229-1.893-.168-.506-.475-.914-.888-1.162C19.056 4.95 18 5 16.5 5h-10c-.375 0-.722-.003-1.045 0zM6 10h1v1H6v-1zm2 0h1v1H8v-1zm2 0h1v1h-1v-1zm2 0h1v1h-1v-1zm2 0h1v1h-1v-1zm2 0h1v1h-1v-1zm-9 2h1v1H7v-1zm2 0h1v1H9v-1zm2 0h1v1h-1v-1zm2 0h1v1h-1v-1zm2 0h1v1h-1v-1zm-9 2h1v1H6v-1zm2 0h7v1H8v-1zm8 0h1v1h-1v-1z"/></svg>
